X: 42522
T: Wheels Of The World, The
R: reel
M: 4/4
K: Dmixolydian
F/G/A|:dD D/D/D FAGF|EDcD EFGA|dD D/D/D FAGF|EDcE D2 FA|
dD D/D/D FAGF|EDcD EFGc|AddB cBAG|1 EcGE D2 F/G/A:|2 EcGE D2 B/c/d||
|:fAdf afdf|ecga ecge|dff2 agfd|edce d2 B/c/d|fAdf agfd|
ecga ecge|f/g/f ef gece|1 dfe^c d2 B/c/d:|2 d=fec d2 F/G/A||

